src/assets/icons/email.svg

<svg width="18" height="18" viewBox="0 0 18 18" fill="none" xmlns="http://www.w3.org/2000/svg">
<path d="M15.8906 2.39062H2.10938C0.946266 2.39062 0 3.33689 0 4.5V13.5C0 14.6631 0.946266 15.6094 2.10938 15.6094H15.8906C17.0537 15.6094 18 14.6631 18 13.5V4.5C18 3.33689 17.0537 2.39062 15.8906 2.39062ZM16.5938 13.5C16.5938 13.8877 16.2783 14.2031 15.8906 14.2031H2.10938C1.72167 14.2031 1.40625 13.8877 1.40625 13.5V4.5C1.40625 4.1123 1.72167 3.79688 2.10938 3.79688H15.8906C16.2783 3.79688 16.5938 4.1123 16.5938 4.5V13.5Z" fill="white"/>
<path d="M16.4743 3.26709L8.99999 8.82658L1.52563 3.26709L0.68631 4.39543L8.99999 10.5792L17.3137 4.39543L16.4743 3.26709Z" fill="white"/>
</svg>

<svg xmlns="http://www.w3.org/2000/svg" width="18" height="18" fill="none"><path fill="#fff" d="M15.89 2.39H2.11C.945 2.39 0 3.338 0 4.5v9c0 1.163.946 2.11 2.11 2.11h13.78c1.164 0 2.11-.947 2.11-2.11v-9c0-1.163-.946-2.11-2.11-2.11Zm.704 11.11a.704.704 0 0 1-.703.703H2.109a.704.704 0 0 1-.703-.703v-9c0-.388.316-.703.703-.703h13.782c.387 0 .703.315.703.703v9Z"/><path fill="#fff" d="M16.474 3.267 9 8.827l-7.474-5.56-.84 1.128L9 10.58l8.314-6.184-.84-1.128Z"/></svg>
